X:1
T:Vers toy, Seigneur dous
T:Claude le Jeune
T:Vers toy, Seigneur dous
C:Claude le Jeune
%%score [ 1 2 3 4 ]
L:1/8
Q:1/4=106
M:4/4
K:Eb
V:1 treble nm="Soprano" snm="S"
V:2 treble nm="Alto" snm="A"
V:3 treble-8 nm="Tenor" snm="T"
V:4 bass nm="Bass" snm="B"
V:1
"^Pseaume 130" G4 F4 | G2 E4 D2- | D2 GA B2 A2 | G2 cd e2 dc | =B4 z4 | e4 c4 | c2 d4 G2- | %7
w: Vers toy,|Seig- neur dous,|_ pres- * * sé|de maint _ _ ma- *|leur,|Mes cris|j'ay pous- sé|
w: Mon Dieu|j'a- ten- dray,|_ Dieu _ _ que|mon ame _ _ a- *|tend,|Dieu dont|le par- ler|
 G2 A4 c2 | B2 B4 =A2 | B4 z4 | A4 G4 | F2 B4 c2- | c2 d4 c=B | cd e2 d4 |[M:2/4] z4 | %15
w: _ hors du|pro- fond du|coeur:|En- ten|de mes plaints|_ les pi- *|teus _ _ sons||
w: _ ferme as-|seu- ran- ce|rend:|Mes yeux|de- vers luy|_ j'au- ray _|tous- * * jours,||
[M:4/4] g2 fe d2 c2 | =B4 c2 _B2 | (3A4- A4 G4 | FE F2 G4 |[M:2/4] z4 |[M:4/4] g4 f4 | d2 e4 d2- | %22
w: Ten _ _ l'o- reille|en- cline à|tant _ d'o-|rai- * * zons.||Quand plein|de cour- rous,|
w: Plus _ _ que le|guet à la|poin- * te|des _ _ jours.||Mets l'es-|poir en Dieu,|
 d2 f4 e2 | d2 B4 c2 | F4 z4 | A4 G4 | =B2 c4 d2- | d2 e4 c2 | d2 B3 c A2 | G4 z4 | A4 F4 | %31
w: _ il te|plai- ra pu-|nir,|Quel coeur,|de- vant toy,|_ pour- ra|se main- * te-|nir?|Or rien|
w: _ Ja- cob,|il est tré-|dous:|Dieu n'est|que bon- té,|_ n'est que|se- cours _ à|tous.|Tous les|
 G2 c4 =B2- | B2 c4 d2 | e4 d4 |[M:2/4] z4 |[M:4/4] B4 e2 d2 | c4 B2 A2 | G4 F2 G2- | G2 G6 |] %39
w: que dou- ceur|_ n'as tu|bon Dieu:||Aus- si tu|es ré- vé-|ré de maint|_ lieu.|
w: mé- chans faits|_ il ne-|stoy'- ra,||Puis de la|mort ra- che-|ter te vien-|* dra.|
V:2
 =B,4 D4 | G,2 C4 =B,2- | B,2 D3 E F2 | E2 E4 F2 | G4 z4 | c4 A4 | G2 GF/E/ D2 C2- | C2 F4 G2 | %8
w: Vers toy,|Seig- neur dous,|_ pres- * sé|de maint ma-|leur,|Mes cris|j'ay pous- * * * sé|_ hors du|
w: Mon Dieu|j'a- ten- dray,|_ Dieu _ que|mon ame a-|tend,|Dieu dont|le par- * * * ler|_ ferme as-|
 F2 G4 FE | D4 z4 | F4 E4 | B,2 B,4 E2- | E2 D4 G2 | G3 =A B4 |[M:2/4] z4 |[M:4/4] B4 B2 G2 | %16
w: pro- fond du _|coeur:|En- ten|de mes plaints|_ les pi-|teus _ sons||Ten l'o- reille|
w: seu- ran- ce _|rend:|Mes yeux|de- vers luy|_ j'au- ray|tous- * jours,||Plus que le|
 G4 G2 G2 | (3F4- F4 B,4 | C4 D4 |[M:2/4] z4 |[M:4/4] c4 A4 | G2 G4 G2- | G2 =A4 c2 | BAGF G2 FE | %24
w: en- cline à|tant _ d'o-|rai- zons.||Quand plein|de cour- rous,|_ il te|plai- * ra _ _ pu- *|
w: guet à la|poin- * te|des jours.||Mets l'es-|poir en Dieu,|_ Ja- cob,|il _ est _ _ tré- *|
 D4 z4 | F4 =E4 | G2 G4 G2- | G2 c4 A2 | BAGF G2 F2 | =E4 z4 | F4 D4 | E2 G4 G2- | G2 A3 G F2 | %33
w: nir,|Quel coeur,|de- vant toy,|_ pour- ra|se _ main- * * te-|nir?|Or rien|que dou- ceur|_ n'as _ tu|
w: dous:|Dieu n'est|que bon- té,|_ n'est que|se- * cours _ _ à|tous.|Tous les|mé- chans faits|_ il _ ne-|
 E2 DC F4 |[M:2/4] z4 |[M:4/4] G4 G2 G2 | E3 F G2 F2 | E4 DC B,2 | E2 D6 |] %39
w: bon _ _ Dieu:||Aus- si tu|es _ ré- vé-|ré de _ maint|_ lieu.|
w: stoy'- * * ra,||Puis de la|mort _ ra- che-|ter te _ vien-|* dra.|
V:3
 d4 B4 | B2 A2 G2 G2- | G2 B4 c2 | c2 c4 c2 | d4 z4 | g4 f4 | ed/c/ =B4 c2- | c2 c4 e2 | %8
w: Vers toy,|Seig- neur _ dous,|_ pres- sé|de maint ma-|leur,|Mes cris|j'ay _ _ pous- sé|_ hors du|
w: Mon Dieu|j'a- ten- * dray,|_ Dieu que|mon ame a-|tend,|Dieu dont|le _ _ par- ler|_ ferme as-|
 d2 cB c2 c2 | B4 z4 | c4 c4 | F2 G4 AG | c2 =B3 c d2 | e4 f4 |[M:2/4] z4 |[M:4/4] ef g2 f2 e2 | %16
w: pro- fond _ _ du|coeur:|En- ten|de mes plaints _|_ les _ pi-|teus sons||Ten _ _ l'o- reille|
w: seu- ran- * * ce|rend:|Mes yeux|de- vers luy _|_ j'au- * ray|tous- jours,||Plus _ _ que le|
 d4 e2 e2 | (3c6 d2 e4 | e2 dc =B4 |[M:2/4] z4 |[M:4/4] =e4 c4 | =B2 c4 B2- | B2 c4 g2 | %23
w: en- cline à|tant _ d'o-|rai- * * zons.||Quand plein|de cour- rous,|_ il te|
w: guet à la|poin- * te|des _ _ jours.||Mets l'es-|poir en Dieu,|_ Ja- cob,|
 f2 ed cB =A2 | B4 z4 | c4 c4 | d2 e4 d2- | d2 g4 f2 | f2 e4 c2 | c4 z4 | c4 B4 | B2 e4 d2- | %32
w: plai- ra _ _ _ pu-|nir,|Quel coeur,|de- vant toy,|_ pour- ra|se main- te-|nir?|Or rien|que dou- ceur|
w: il est _ _ _ tré-|dous:|Dieu n'est|que bon- té,|_ n'est que|se- cours à|tous.|Tous les|mé- chans faits|
 d2 f4 B2 | G2 =A2 B4 |[M:2/4] z4 |[M:4/4] B2 AG c2 =B2 | cd e2 e2 c2 | cB A2 A2 G2 | c2 =B6 |] %39
w: _ n'as tu|bon _ Dieu:||Aus- * * si tu|es _ _ ré- vé-|ré _ _ de maint|_ lieu.|
w: _ il ne-|stoy'- * ra,||Puis _ _ de la|mort _ _ ra- che-|ter _ _ te vien-|* dra.|
V:4
 G,4 D,4 | E,2 C,4 G,,2- | G,,2 G,4 F,2 | C,2 A,4 A,2 | G,4 z4 | C4 F,4 | C,2 G,4 =E,2- | %7
w: Vers toy,|Seig- neur dous,|_ pres- sé|de maint ma-|leur,|Mes cris|j'ay pous- sé|
w: Mon Dieu|j'a- ten- dray,|_ Dieu que|mon ame a-|tend,|Dieu dont|le par- ler|
 E,2 F,4 C,2 | D,2 E,4 F,2 | B,,4 z4 | F,4 C,4 | D,2 E,4 C,2- | C,2 G,4 G,2 | C4 B,4 |[M:2/4] z4 | %15
w: _ hors du|pro- fond du|coeur:|En- ten|de mes plaints|_ les pi-|teus sons||
w: _ ferme as-|seu- ran- ce|rend:|Mes yeux|de- vers luy|_ j'au- ray|tous- jours,||
[M:4/4] E,4 B,2 C2 | G,4 C,2 E,2 | (3F,4- F,4 G,4 | A,4 G,4 |[M:2/4] z4 |[M:4/4] C4 F,4 | %21
w: Ten l'o- reille|en- cline à|tant _ d'o-|rai- zons.||Quand plein|
w: Plus que le|guet à la|poin- * te|des jours.||Mets l'es-|
 G,2 C,4 G,2- | G,2 F,4 C,2 | D,2 E,4 C,2 | B,,4 z4 | F,4 C,4 | G,2 C4 =B,2- | B,2 C4 F,2 | %28
w: de cour- rous,|_ il te|plai- ra pu-|nir,|Quel coeur,|de- vant toy,|_ pour- ra|
w: poir en Dieu,|_ Ja- cob,|il est tré-|dous:|Dieu n'est|que bon- té,|_ n'est que|
 D,2 E,4 F,2 | C,4 z4 | F,4 B,,4 | E,2 C,4 G,2- | G,2 F,3 E, D,2 | C,4 B,,4 |[M:2/4] z4 | %35
w: se main- te-|nir?|Or rien|que dou- ceur|_ n'as _ tu|bon Dieu:||
w: se- cours à|tous.|Tous les|mé- chans faits|_ il _ ne-|stoy'- ra,||
[M:4/4] E,4 C,2 G,2 | A,4 E,2 F,2 | C,4 D,2 E,2 | D,C, G,6 |] %39
w: Aus- si tu|es ré- vé-|ré de maint|_ _ lieu.|
w: Puis de la|mort ra- che-|ter te vien-|* * dra.|

